X:1
T:Pavane for Trombone
T:Pavane for Trombone
T:Maurice Ravel
C:Maurice Ravel
L:1/8
Q:1/4=80
M:4/4
K:Bb
V:1 bass nm="Tenor Trombone" snm="T. Tbn."
V:1
 z8 | z8 | z8 | z8 |!mf! B,4- B,!tenuto!C!tenuto!A,!tenuto!G, | %5
 F,2 !tenuto!G,!tenuto!A, !tenuto!A,!tenuto!G, G,2 |!f! D4- D!tenuto!E!tenuto!C!tenuto!B, | %7
 A,2 !tenuto!B,C- C!tenuto!D!tenuto!B,!tenuto!A, | %8
 !tenuto!G,2!>(! !tenuto!A,B,- B,!tenuto!C!tenuto!A,!tenuto!G,!>)! |!mf! A,4 z4 | z8 | %11
!mf! D4- D!<(!!tenuto!C!tenuto!F!tenuto!D!<)! |!>(! (D2 C2 B,2 C2!>)! | %13
 G,4) z !tenuto!F,!tenuto!B,!tenuto!A, | %14
 !tenuto!G,2!f! !tenuto!F,!tenuto!G, !tenuto!A,2 !tenuto!G,2 | A,4 z4 |!p! (A,2 B,2- B,)(A,B,C | %17
 F,2 =E,6) | (F,2 G,2- G,)!<(!(F,G,A,!<)! | D2 C2!>(! A,4)!>)! | (C2 D2- D)!<(!(CD=E!<)! | %21
 A,2 G,3) !tenuto!F,!tenuto!G,!tenuto!A, | (G,4 F,4) | z8 | z8 | z8 | z8 |!mf! (C2 D2- D)(CD=E | %28
 A,2 G,2- !breath!G,)!<(!!tenuto!F,!tenuto!G,!tenuto!A,!<)! |!>(! (G,2 F,) z !>!A,2 !>!G,2-!>)! | %30
 G,!>!F,!>!G,!>!A, (!>!G,2 !fermata!F,2) |!mf! B,4- B,(CA,G, | %32
 F,2) !tenuto!G,!tenuto!A, !tenuto!A,!tenuto!G, !tenuto!G,2 | %33
!f! D4- D!tenuto!E!tenuto!C!tenuto!B, | !tenuto!A,2 !tenuto!B,C- C!tenuto!D!tenuto!B,!tenuto!A, | %35
 !tenuto!G,2 !tenuto!A,B,- B,!tenuto!C!tenuto!A,!tenuto!G, | A,4 z4 | z8 | %38
!mf! D4- D!tenuto!C!tenuto!F!tenuto!D | (D2 C2 B,2 C2 | G,4- !breath!G,)!f!F,B,A, | %41
 G,!>!D,!>!F,!>!G,!<(! !>!A,2 !>!G,2!<)! |!ff! !>!A,4 !>!F,!>!G,!>!B,!>!D | %43
 !>!D4- D z !fermata!B,,2 |] %44

